src/assets/portfolio-projects-full-logo.svg

<svg width="371" height="100" viewBox="0 0 371 100" fill="none" xmlns="http://www.w3.org/2000/svg">
<g clip-path="url(#clip0_109_3)">
<path d="M46.5659 99.7868C33.3779 98.7858 19.8709 91.7708 11.5029 81.5768C5.45191 74.2048 1.82191 66.0648 0.400907 56.6788C-0.128093 53.1818 -0.135093 45.9688 0.388907 42.6458C2.85491 26.9928 11.9669 13.8868 25.7649 6.1448C35.8239 0.500796 48.6379 -1.3862 60.5089 1.0298C72.5059 3.4708 83.5619 10.3938 90.5479 19.8398C95.0879 25.9788 97.9279 32.6608 99.4829 40.8618C99.9319 43.2268 99.9939 44.2868 99.9999 49.6618C100.005 54.9968 99.9429 56.1188 99.5089 58.4898C96.9999 72.2118 89.3839 83.8878 78.0509 91.3908C72.9929 94.7388 68.1469 96.9238 62.6589 98.3308C57.6199 99.6218 51.5849 100.169 46.5659 99.7868ZM56.1889 97.5038L58.4499 97.2468L58.5179 96.0888L58.5849 94.9308L59.8859 94.8638C61.1759 94.7958 61.1879 94.8008 61.1909 95.4288C61.1969 96.4738 61.4879 96.7378 62.3559 96.4888C62.9459 96.3198 63.1349 96.1268 63.2259 95.6018C63.3339 94.9698 63.4089 94.9268 64.5299 94.8628C65.4209 94.8118 65.7519 94.8788 65.8489 95.1318C66.0009 95.5258 66.0259 95.5188 68.9909 94.2858L71.2489 93.3468L68.8859 93.2818C67.3449 93.2398 66.4629 93.1208 66.3489 92.9418C66.0739 92.5098 66.1389 90.6368 66.4389 90.3368C66.7419 90.0338 68.0789 89.9958 70.8639 90.2128C72.6819 90.3548 72.7319 90.3738 72.7479 90.9468C72.7559 91.2708 72.8329 91.7108 72.9179 91.9248C73.0499 92.2588 73.1509 92.2738 73.6369 92.0308L74.2029 91.7488L74.2629 85.7318C74.3139 80.6558 74.2709 79.6708 73.9899 79.4378C73.7319 79.2228 68.3829 79.1628 50.2799 79.1718C28.2739 79.1818 26.8859 79.2058 26.6129 79.5798C26.3919 79.8828 26.3369 81.3338 26.3839 85.7468L26.4439 91.5178L27.2359 92.0538L28.0279 92.5888L28.0969 91.5528L28.1659 90.5178L32.8509 90.4968C35.4269 90.4858 38.1459 90.4438 38.8929 90.4028C40.9799 90.2888 41.0429 90.3318 41.0429 91.8808V93.2128L40.2059 93.3698C39.7459 93.4568 37.2249 93.4628 34.6039 93.3838C30.3929 93.2568 29.9069 93.2778 30.4259 93.5648C31.7579 94.3018 33.9379 94.9788 34.6469 94.8748C35.7139 94.7188 36.5159 94.9758 36.5159 95.4748C36.5159 95.8858 37.0849 96.1668 37.9309 96.1728C38.2219 96.1748 38.3269 95.9938 38.3269 95.4848V94.7948L39.5149 94.8628L40.7039 94.9308L40.7729 95.8818C40.8239 96.5888 40.9549 96.8688 41.2829 96.9728C43.4869 97.6718 52.0309 97.9768 56.1889 97.5038ZM58.1629 93.1708C57.8469 92.9398 57.7809 92.6088 57.8369 91.5298L57.9059 90.1778H60.3959L60.4639 91.6288C60.5119 92.6358 60.4419 93.1368 60.2379 93.2658C59.7899 93.5498 58.6069 93.4958 58.1629 93.1708ZM62.2369 93.1708C61.9209 92.9398 61.8549 92.6088 61.9109 91.5298L61.9799 90.1778H64.4699L64.5379 91.6288C64.5859 92.6358 64.5169 93.1368 64.3119 93.2658C63.8639 93.5498 62.6819 93.4958 62.2369 93.1708ZM51.9639 88.7688L51.2289 88.6778V87.1078C51.2289 85.3848 51.1159 85.4948 52.9259 85.4478L53.8319 85.4248L53.8989 86.9888C53.9469 88.0868 53.8799 88.6088 53.6729 88.7398C53.3739 88.9288 53.2669 88.9308 51.9639 88.7688ZM28.0069 88.1378C27.9289 87.8248 27.9329 87.1118 28.0169 86.5538L28.1689 85.5378H32.8529L32.9299 86.7538C33.0609 88.7948 33.1699 88.7068 30.5059 88.7068C28.1789 88.7068 28.1479 88.6998 28.0069 88.1378ZM34.6299 88.5558C34.5469 88.4728 34.4789 87.7688 34.4789 86.9928V85.5798L35.7429 85.5018C36.4389 85.4598 37.0499 85.4668 37.1009 85.5188C37.1529 85.5708 37.1949 86.3088 37.1949 87.1598V88.7068H35.9879C35.3239 88.7068 34.7129 88.6388 34.6299 88.5558ZM38.7799 87.7178C38.7799 87.1618 38.7299 86.5708 38.6689 86.4048C38.4639 85.8468 38.9299 85.5118 40.0849 85.3878L41.2349 85.2638L41.3839 86.2628C41.4669 86.8128 41.4999 87.5618 41.4579 87.9278C41.3849 88.5688 41.3349 88.5958 40.0809 88.6618L38.7799 88.7288V87.7178ZM42.9479 88.3988C42.8829 88.2288 42.8599 87.4908 42.8979 86.7578L42.9669 85.4248H45.4569L45.5229 87.0658L45.5899 88.7068H44.3279C43.4719 88.7068 43.0279 88.6078 42.9479 88.3988ZM47.1429 88.5368C47.1359 88.4438 47.0739 87.7688 47.0059 87.0368C46.8599 85.4728 46.9979 85.3198 48.5689 85.3148L49.6439 85.3118V88.7068H48.3989C47.7149 88.7068 47.1489 88.6298 47.1429 88.5368ZM55.3489 87.0768L55.4159 85.4248L56.5969 85.3568C57.6769 85.2938 57.7899 85.3338 57.9129 85.8238C57.9869 86.1188 58.0159 86.8628 57.9769 87.4768L57.9059 88.5938L56.5939 88.6618L55.2829 88.7298L55.3489 87.0768ZM59.5279 88.5558C59.4449 88.4728 59.3769 87.7728 59.3769 86.9998V85.5958L60.5659 85.4728C61.4919 85.3778 61.8159 85.4308 62.0369 85.7138C62.3969 86.1768 62.4049 88.0778 62.0479 88.4348C61.7629 88.7208 59.7869 88.8148 59.5279 88.5558ZM63.8389 88.5658C63.7499 88.4778 63.6779 87.7698 63.6779 86.9938V85.5838L64.7529 85.4878C66.3779 85.3428 66.4219 85.3878 66.3469 87.0938L66.2809 88.5938L65.1399 88.6598C64.5129 88.6968 63.9269 88.6548 63.8389 88.5658ZM68.4529 88.3938C68.2919 88.1998 68.2079 87.5678 68.2489 86.8578C68.3169 85.6698 68.3299 85.6488 69.1039 85.5378C69.5359 85.4758 70.5339 85.4588 71.3209 85.5008L72.7509 85.5778L72.6849 87.0858L72.6179 88.5938L70.6729 88.6588C69.1849 88.7078 68.6619 88.6458 68.4529 88.3938ZM28.1409 82.1428V80.3318H30.5659L30.7029 81.8058C30.8929 83.8388 30.8219 83.9538 29.3619 83.9538H28.1409V82.1428ZM32.2159 82.1538V80.3318H33.3199C34.7569 80.3318 34.9709 80.6158 34.8869 82.4058L34.8189 83.8398L33.5169 83.9078L32.2159 83.9758V82.1538ZM36.3369 82.1988L36.4029 80.4448H38.8929L38.9589 82.1988L39.0249 83.9538H36.2709L36.3369 82.1988ZM40.5899 82.1538V80.3318H41.8309C43.2699 80.3318 43.3819 80.5098 43.2629 82.6078L43.1929 83.8398L41.8919 83.9078L40.5899 83.9758V82.1538ZM44.7589 83.6468C44.6939 83.4778 44.6719 82.6888 44.7099 81.8928L44.7779 80.4448H47.2679L47.3339 82.1988L47.3999 83.9538H46.1379C45.2859 83.9538 44.8389 83.8538 44.7589 83.6468ZM48.9649 82.3798V80.6148C48.9649 80.5218 49.5509 80.4448 50.2669 80.4448H51.5679V83.8398L50.2669 83.9078L48.9649 83.9758V82.3798ZM53.0869 82.1988L53.1529 80.4448H55.6419L55.7089 82.1988L55.7749 83.9538H53.0199L53.0869 82.1988ZM57.3059 82.8888C57.2629 82.2918 57.2589 81.4718 57.2979 81.0678C57.3669 80.3478 57.3929 80.3318 58.4729 80.3318C59.0799 80.3318 59.6259 80.4118 59.6859 80.5088C59.7459 80.6058 59.8209 81.3948 59.8529 82.2628L59.9109 83.8398L58.6479 83.9078L57.3849 83.9748L57.3059 82.8888ZM61.4609 82.1988L61.5269 80.4448H64.0169L64.0829 82.1988L64.1499 83.9538H61.3949L61.4609 82.1988ZM65.7619 82.1988L65.8279 80.4448H68.3179L68.3839 82.1988L68.4499 83.9538H65.6959L65.7619 82.1988ZM70.0619 82.2108L70.1289 80.4448H72.6179V83.8398L71.3069 83.9088L69.9959 83.9768L70.0619 82.2108ZM24.2939 84.4568C24.2939 78.2558 24.3389 77.9708 25.4289 77.3868C26.0019 77.0808 74.6349 77.0758 75.2079 77.3818C75.4289 77.5008 75.8029 77.8818 76.0379 78.2288C76.4219 78.7948 76.4779 79.4568 76.5789 84.5908L76.6929 90.3208L78.0509 89.3578C85.4962 84.0969 91.3063 76.8424 94.8139 68.4278C101.765 51.8378 98.7829 31.9538 87.3379 18.5618C83.1299 13.6388 78.6159 10.0678 73.0889 7.2898C50.0519 -4.2882 23.0749 2.59979 9.52391 23.5188C2.51391 34.3418 0.143907 46.7638 2.67891 59.3998C4.73191 69.6308 11.1039 80.2328 19.0889 86.7008C20.5199 87.8608 23.9199 90.2818 24.1239 90.2868C24.2169 90.2898 24.2939 87.6658 24.2939 84.4568ZM68.4309 72.0838C60.2549 70.3518 54.6229 64.2108 53.7309 56.0558C53.2839 51.9648 54.2429 47.1418 56.1459 43.9108C57.8779 40.9718 61.5089 37.7038 64.4869 36.4048C70.7849 33.6588 79.4809 34.2468 84.5959 37.7658C85.9999 38.7318 88.3489 40.9318 88.3489 41.2808C88.3489 41.5848 83.4159 46.4448 82.7409 46.8058C82.2509 47.0678 81.9409 46.9058 80.6389 45.7038C78.2749 43.5218 74.6499 42.4238 71.6039 42.9688C64.6509 44.2108 60.8159 51.9618 63.8979 58.5468C64.7479 60.3648 66.6909 62.4168 68.3139 63.2108C72.7289 65.3728 77.2059 64.6068 80.6259 61.1048C81.5099 60.1998 82.3779 59.5078 82.6289 59.5078C82.8729 59.5078 83.6269 59.9918 84.3039 60.5828C85.2061 61.3615 86.1232 62.1226 87.0549 62.8658C87.8919 63.5308 88.5759 64.2088 88.5759 64.3738C88.5759 64.8228 86.9819 66.7508 85.6049 67.9688C83.8919 69.4828 81.7259 70.7008 79.2619 71.5358C77.2919 72.2028 76.8939 72.2578 73.5239 72.3238C71.0579 72.3728 69.4329 72.2958 68.4309 72.0838ZM12.4609 53.9178C12.3869 43.8708 12.3769 35.5698 12.4379 35.4698C12.4999 35.3708 14.7619 35.2888 17.4649 35.2888H22.3809L25.4309 39.8638C28.0864 43.8201 30.7631 47.7622 33.4609 51.6898L38.4399 58.9418L38.4989 47.1158L38.5569 35.2888H47.1549V46.5698C47.1549 52.7738 47.2219 61.0748 47.3039 65.0168L47.4539 72.1838H36.9769L29.8689 61.4888C25.9599 55.6068 22.3929 50.2848 21.9429 49.6628L21.1249 48.5318V72.1838H12.5959L12.4609 53.9178ZM86.6249 32.1308C85.1169 31.5268 83.4869 30.7768 83.0039 30.4648C82.5199 30.1538 80.8519 28.6128 79.2959 27.0418L76.4659 24.1858L76.3529 25.3808L76.2399 26.5748L74.4409 24.4808C73.4509 23.3298 72.5849 22.3878 72.5169 22.3888C72.2419 22.3908 69.7329 26.5508 69.7329 27.0038C69.7329 27.2708 70.0629 28.2818 70.4659 29.2508C70.8689 30.2188 71.1589 31.0518 71.1099 31.1018C70.8999 31.3108 62.3189 22.8888 60.6439 20.8288C57.8959 17.4518 53.8479 12.6868 53.7109 12.6698C53.6449 12.6618 53.5939 13.9528 53.5979 15.5408C53.6049 18.1208 53.5289 18.6898 52.8869 20.9158C51.8809 24.4008 50.7529 27.4368 50.5459 27.2148C50.4509 27.1118 50.1959 25.0408 49.9809 22.6138C49.7659 20.1858 49.5559 18.1618 49.5129 18.1148C49.4709 18.0678 48.1169 18.9588 46.5049 20.0948C44.8919 21.2308 43.4219 22.2178 43.2379 22.2888C42.9929 22.3828 43.2259 21.3138 44.1139 18.2808C44.7799 16.0058 45.2939 14.1138 45.2569 14.0768C45.2189 14.0388 44.0349 15.3078 42.6249 16.8968C39.2779 20.6658 36.6299 23.1238 34.2529 24.6668C29.6809 27.6348 28.6539 28.1118 29.6999 26.7828C29.9629 26.4478 30.1789 26.0938 30.1789 25.9968C30.1789 25.7428 27.9089 23.2928 27.6739 23.2928C27.5669 23.2928 27.2289 23.6598 26.9239 24.1088C26.0849 25.3438 22.3029 29.5478 21.6409 29.9818C21.0839 30.3468 21.0629 30.3448 21.1769 29.9408C21.2419 29.7078 21.5169 28.9658 21.7869 28.2918C22.0859 27.5478 22.1629 27.1568 21.9849 27.2958C21.8229 27.4208 20.7229 28.2878 19.5399 29.2218C16.9129 31.2948 16.5829 31.4698 13.8819 32.2098C10.8379 33.0438 10.6779 32.9778 12.4529 31.6248C15.2649 29.4838 18.3989 26.9028 22.7399 23.1528C25.1009 21.1138 27.0889 19.4448 27.1579 19.4448C27.2269 19.4448 28.2499 20.3608 29.4329 21.4798L31.5829 23.5138L32.8929 22.3288C33.6139 21.6758 35.6689 19.7678 37.4599 18.0868C40.5569 15.1808 49.0869 7.4578 49.9259 6.7988C50.2829 6.5198 50.9289 7.0868 56.5089 12.5708C59.9119 15.9158 63.9319 19.8068 65.4419 21.2168L68.1879 23.7808L70.7829 21.3868C72.2109 20.0698 73.4769 18.9918 73.5959 18.9918C73.7149 18.9918 75.1229 20.1888 76.7259 21.6518C81.7229 26.2128 83.6169 27.8818 86.5389 30.3018C90.2029 33.3358 90.1159 33.2548 89.6989 33.2408C89.5169 33.2348 88.1339 32.7358 86.6249 32.1308Z" fill="#0D548E"/>
<path d="M152.68 42.08C152.68 44.32 152.14 46.42 151.06 48.38C150.02 50.34 148.36 51.92 146.08 53.12C143.84 54.32 141 54.92 137.56 54.92H130.54V71H122.14V29.12H137.56C140.8 29.12 143.56 29.68 145.84 30.8C148.12 31.92 149.82 33.46 150.94 35.42C152.1 37.38 152.68 39.6 152.68 42.08ZM137.2 48.14C139.52 48.14 141.24 47.62 142.36 46.58C143.48 45.5 144.04 44 144.04 42.08C144.04 38 141.76 35.96 137.2 35.96H130.54V48.14H137.2ZM173.404 71.54C170.204 71.54 167.324 70.84 164.764 69.44C162.204 68 160.184 65.98 158.704 63.38C157.264 60.78 156.544 57.78 156.544 54.38C156.544 50.98 157.284 47.98 158.764 45.38C160.284 42.78 162.344 40.78 164.944 39.38C167.544 37.94 170.444 37.22 173.644 37.22C176.844 37.22 179.744 37.94 182.344 39.38C184.944 40.78 186.984 42.78 188.464 45.38C189.984 47.98 190.744 50.98 190.744 54.38C190.744 57.78 189.964 60.78 188.404 63.38C186.884 65.98 184.804 68 182.164 69.44C179.564 70.84 176.644 71.54 173.404 71.54ZM173.404 64.22C174.924 64.22 176.344 63.86 177.664 63.14C179.024 62.38 180.104 61.26 180.904 59.78C181.704 58.3 182.104 56.5 182.104 54.38C182.104 51.22 181.264 48.8 179.584 47.12C177.944 45.4 175.924 44.54 173.524 44.54C171.124 44.54 169.104 45.4 167.464 47.12C165.864 48.8 165.064 51.22 165.064 54.38C165.064 57.54 165.844 59.98 167.404 61.7C169.004 63.38 171.004 64.22 173.404 64.22ZM205.306 42.92C206.386 41.16 207.786 39.78 209.506 38.78C211.266 37.78 213.266 37.28 215.506 37.28V46.1H213.286C210.646 46.1 208.646 46.72 207.286 47.96C205.966 49.2 205.306 51.36 205.306 54.44V71H196.906V37.76H205.306V42.92ZM230.943 44.66V60.74C230.943 61.86 231.203 62.68 231.723 63.2C232.283 63.68 233.203 63.92 234.483 63.92H238.383V71H233.103C226.023 71 222.483 67.56 222.483 60.68V44.66H218.523V37.76H222.483V29.54H230.943V37.76H238.383V44.66H230.943ZM259.665 44.66H253.845V71H245.325V44.66H241.545V37.76H245.325V36.08C245.325 32 246.485 29 248.805 27.08C251.125 25.16 254.625 24.26 259.305 24.38V31.46C257.265 31.42 255.845 31.76 255.045 32.48C254.245 33.2 253.845 34.5 253.845 36.38V37.76H259.665V44.66ZM279.869 71.54C276.669 71.54 273.789 70.84 271.229 69.44C268.669 68 266.649 65.98 265.169 63.38C263.729 60.78 263.009 57.78 263.009 54.38C263.009 50.98 263.749 47.98 265.229 45.38C266.749 42.78 268.809 40.78 271.409 39.38C274.009 37.94 276.909 37.22 280.109 37.22C283.309 37.22 286.209 37.94 288.809 39.38C291.409 40.78 293.449 42.78 294.929 45.38C296.449 47.98 297.209 50.98 297.209 54.38C297.209 57.78 296.429 60.78 294.869 63.38C293.349 65.98 291.269 68 288.629 69.44C286.029 70.84 283.109 71.54 279.869 71.54ZM279.869 64.22C281.389 64.22 282.809 63.86 284.129 63.14C285.489 62.38 286.569 61.26 287.369 59.78C288.169 58.3 288.569 56.5 288.569 54.38C288.569 51.22 287.729 48.8 286.049 47.12C284.409 45.4 282.389 44.54 279.989 44.54C277.589 44.54 275.569 45.4 273.929 47.12C272.329 48.8 271.529 51.22 271.529 54.38C271.529 57.54 272.309 59.98 273.869 61.7C275.469 63.38 277.469 64.22 279.869 64.22ZM311.77 26.6V71H303.37V26.6H311.77ZM324.33 33.8C322.85 33.8 321.61 33.34 320.61 32.42C319.65 31.46 319.17 30.28 319.17 28.88C319.17 27.48 319.65 26.32 320.61 25.4C321.61 24.44 322.85 23.96 324.33 23.96C325.81 23.96 327.03 24.44 327.99 25.4C328.99 26.32 329.49 27.48 329.49 28.88C329.49 30.28 328.99 31.46 327.99 32.42C327.03 33.34 325.81 33.8 324.33 33.8ZM328.47 37.76V71H320.07V37.76H328.47ZM351.529 71.54C348.329 71.54 345.449 70.84 342.889 69.44C340.329 68 338.309 65.98 336.829 63.38C335.389 60.78 334.669 57.78 334.669 54.38C334.669 50.98 335.409 47.98 336.889 45.38C338.409 42.78 340.469 40.78 343.069 39.38C345.669 37.94 348.569 37.22 351.769 37.22C354.969 37.22 357.869 37.94 360.469 39.38C363.069 40.78 365.109 42.78 366.589 45.38C368.109 47.98 368.869 50.98 368.869 54.38C368.869 57.78 368.089 60.78 366.529 63.38C365.009 65.98 362.929 68 360.289 69.44C357.689 70.84 354.769 71.54 351.529 71.54ZM351.529 64.22C353.049 64.22 354.469 63.86 355.789 63.14C357.149 62.38 358.229 61.26 359.029 59.78C359.829 58.3 360.229 56.5 360.229 54.38C360.229 51.22 359.389 48.8 357.709 47.12C356.069 45.4 354.049 44.54 351.649 44.54C349.249 44.54 347.229 45.4 345.589 47.12C343.989 48.8 343.189 51.22 343.189 54.38C343.189 57.54 343.969 59.98 345.529 61.7C347.129 63.38 349.129 64.22 351.529 64.22Z" fill="#0D548E"/>
</g>
<defs>
<clipPath id="clip0_109_3">
<rect width="371" height="99.907" fill="white"/>
</clipPath>
</defs>
</svg>

<svg width="371" xmlns="http://www.w3.org/2000/svg" height="99.907" id="screenshot-d58ab6fe-773d-80b6-8004-c5adc8765c67" fill="none" version="1.1"><style>@font-face{font-family:&apos;Poppins&apos;;font-style:normal;font-weight:600;font-display:block;src:url(https://design.penpot.app/internal/gfonts/font/poppins/v21/pxiByp8kv8JHgFVrLEj6Z1JlFc-K.woff2) format(&apos;woff2&apos;);unicode-range:U+0100-02AF, U+0304, U+0308, U+0329, U+1E00-1E9F, U+1EF2-1EFF, U+2020, U+20A0-20AB, U+20AD-20C0, U+2113, U+2C60-2C7F, U+A720-A7FF}@font-face{font-family:&apos;Poppins&apos;;font-style:normal;font-weight:600;font-display:block;src:url(https://design.penpot.app/internal/gfonts/font/poppins/v21/pxiByp8kv8JHgFVrLEj6Z1xlFQ.woff2) format(&apos;woff2&apos;);unicode-range:U+0000-00FF, U+0131, U+0152-0153, U+02BB-02BC, U+02C6, U+02DA, U+02DC, U+0304, U+0308, U+0329, U+2000-206F, U+2074, U+20AC, U+2122, U+2191, U+2193, U+2212, U+2215, U+FEFF, U+FFFD}</style><g id="shape-d58ab6fe-773d-80b6-8004-c5adc8765c67" data-testid="Group"><g id="shape-a76415d3-fc7e-80b7-8004-bdf5c05b287e" data-testid="svg-path"><path d="M46.566 99.787c-13.188-1.001-26.695-8.016-35.063-18.21C5.452 74.205 1.822 66.065.401 56.679c-.529-3.497-.536-10.71-.012-14.033C2.855 26.993 11.967 13.887 25.765 6.145 35.824.501 48.638-1.386 60.509 1.03c11.997 2.441 23.053 9.364 30.039 18.81 4.54 6.139 7.38 12.821 8.935 21.022.449 2.365.511 3.425.517 8.8.005 5.335-.057 6.457-.491 8.828C97 72.212 89.384 83.888 78.051 91.391c-5.058 3.348-9.904 5.533-15.392 6.94-5.039 1.291-11.074 1.838-16.093 1.456Zm9.623-2.283 2.261-.257.068-1.158.067-1.158 1.301-.067c1.29-.068 1.302-.063 1.305.565.006 1.045.297 1.309 1.165 1.06.59-.169.779-.362.87-.887.108-.632.183-.675 1.304-.739.891-.051 1.222.016 1.319.269.152.394.177.387 3.142-.846l2.258-.939-2.363-.065c-1.541-.042-2.423-.161-2.537-.34-.275-.432-.21-2.305.09-2.605.303-.303 1.64-.341 4.425-.124 1.818.142 1.868.161 1.884.734.008.324.085.764.17.978.132.334.233.349.719.106l.566-.282.06-6.017c.051-5.076.008-6.061-.273-6.294-.258-.215-5.607-.275-23.71-.266-22.006.01-23.394.034-23.667.408-.221.303-.276 1.754-.229 6.167l.06 5.771.792.536.792.535.069-1.036.069-1.035 4.685-.021c2.576-.011 5.295-.053 6.042-.094 2.087-.114 2.15-.071 2.15 1.478v1.332l-.837.157c-.46.087-2.981.093-5.602.014-4.211-.127-4.697-.106-4.178.181 1.332.737 3.512 1.414 4.221 1.31 1.067-.156 1.869.101 1.869.6 0 .411.569.692 1.415.698.291.002.396-.179.396-.688v-.69l1.188.068 1.189.068.069.951c.051.707.182.987.51 1.091 2.204.699 10.748 1.004 14.906.531Zm1.974-4.333c-.316-.231-.382-.562-.326-1.641l.069-1.352h2.49l.068 1.451c.048 1.007-.022 1.508-.226 1.637-.448.284-1.631.23-2.075-.095Zm4.074 0c-.316-.231-.382-.562-.326-1.641l.069-1.352h2.49l.068 1.451c.048 1.007-.021 1.508-.226 1.637-.448.284-1.63.23-2.075-.095Zm-10.273-4.402-.735-.091v-1.57c0-1.723-.113-1.613 1.697-1.66l.906-.023.067 1.564c.048 1.098-.019 1.62-.226 1.751-.299.189-.406.191-1.709.029Zm-23.957-.631c-.078-.313-.074-1.026.01-1.584l.152-1.016h4.684l.077 1.216c.131 2.041.24 1.953-2.424 1.953-2.327 0-2.358-.007-2.499-.569Zm6.623.418c-.083-.083-.151-.787-.151-1.563V85.58l1.264-.078c.696-.042 1.307-.035 1.358.017.052.052.094.79.094 1.641v1.547h-1.207c-.664 0-1.275-.068-1.358-.151Zm4.15-.838c0-.556-.05-1.147-.111-1.313-.205-.558.261-.893 1.416-1.017l1.15-.124.149.999c.083.55.116 1.299.074 1.665-.073.641-.123.668-1.377.734l-1.301.067Zm4.168.681c-.065-.17-.088-.908-.05-1.641l.069-1.333h2.49l.066 1.641.067 1.641h-1.262c-.856 0-1.3-.099-1.38-.308Zm4.195.138c-.007-.093-.069-.768-.137-1.5-.146-1.564-.008-1.717 1.563-1.722l1.075-.003v3.395h-1.245c-.684 0-1.25-.077-1.256-.17Zm8.206-1.46.067-1.652 1.181-.068c1.08-.063 1.193-.023 1.316.467.074.295.103 1.039.064 1.653l-.071 1.117-1.312.068-1.311.068Zm4.179 1.479c-.083-.083-.151-.783-.151-1.556v-1.404l1.189-.123c.926-.095 1.25-.042 1.471.241.36.463.368 2.364.011 2.721-.285.286-2.261.38-2.52.121Zm4.311.01c-.089-.088-.161-.796-.161-1.572v-1.41l1.075-.096c1.625-.145 1.669-.1 1.594 1.606l-.066 1.5-1.141.066c-.627.037-1.213-.005-1.301-.094Zm4.614-.172c-.161-.194-.245-.826-.204-1.536.068-1.188.081-1.209.855-1.32.432-.062 1.43-.079 2.217-.037l1.43.077-.066 1.508-.067 1.508-1.945.065c-1.488.049-2.011-.013-2.22-.265Zm-40.312-6.251v-1.811h2.425l.137 1.474c.19 2.033.119 2.148-1.341 2.148h-1.221Zm4.075.011v-1.822h1.104c1.437 0 1.651.284 1.567 2.074l-.068 1.434-1.302.068-1.301.068Zm4.121.045.066-1.754h2.49l.066 1.754.066 1.755h-2.754Zm4.253-.045v-1.822h1.241c1.439 0 1.551.178 1.432 2.276l-.07 1.232-1.301.068-1.302.068Zm4.169 1.493c-.065-.169-.087-.958-.049-1.754l.068-1.448h2.49l.066 1.754.066 1.755h-1.262c-.852 0-1.299-.1-1.379-.307Zm4.206-1.267v-1.765c0-.093.586-.17 1.302-.17h1.301v3.395l-1.301.068-1.302.068Zm4.122-.181.066-1.754h2.489l.067 1.754.066 1.755H53.02Zm4.219.69c-.043-.597-.047-1.417-.008-1.821.069-.72.095-.736 1.175-.736.607 0 1.153.08 1.213.177.06.097.135.886.167 1.754l.058 1.577-1.263.068-1.263.067Zm4.155-.69.066-1.754h2.49l.066 1.754.067 1.755h-2.755Zm4.301 0 .066-1.754h2.49l.066 1.754.066 1.755h-2.754Zm4.3.012.067-1.766h2.489v3.395l-1.311.069-1.311.068Zm-45.768 2.246c0-6.201.045-6.486 1.135-7.07.573-.306 49.206-.311 49.779-.005.221.119.595.5.83.847.384.566.44 1.228.541 6.362l.114 5.73 1.358-.963a48.457 48.457 0 0 0 16.763-20.93c6.951-16.59 3.969-36.474-7.476-49.866-4.208-4.923-8.722-8.494-14.249-11.272C50.052-4.288 23.075 2.6 9.524 23.519 2.514 34.342.144 46.764 2.679 59.4c2.053 10.231 8.425 20.833 16.41 27.301 1.431 1.16 4.831 3.581 5.035 3.586.093.003.17-2.621.17-5.83Zm44.137-12.373c-8.176-1.732-13.808-7.873-14.7-16.028-.447-4.091.512-8.914 2.415-12.145 1.732-2.939 5.363-6.207 8.341-7.506 6.298-2.746 14.994-2.158 20.109 1.361 1.404.966 3.753 3.166 3.753 3.515 0 .304-4.933 5.164-5.608 5.525-.49.262-.8.1-2.102-1.102-2.364-2.182-5.989-3.28-9.035-2.735-6.953 1.242-10.788 8.993-7.706 15.578.85 1.818 2.793 3.87 4.416 4.664 4.415 2.162 8.892 1.396 12.312-2.106.884-.905 1.752-1.597 2.003-1.597.244 0 .998.484 1.675 1.075a92.234 92.234 0 0 0 2.751 2.283c.837.665 1.521 1.343 1.521 1.508 0 .449-1.594 2.377-2.971 3.595-1.713 1.514-3.879 2.732-6.343 3.567-1.97.667-2.368.722-5.738.788-2.466.049-4.091-.028-5.093-.24Zm-55.97-18.166c-.074-10.047-.084-18.348-.023-18.448.062-.099 2.324-.181 5.027-.181h4.916l3.05 4.575a1334.45 1334.45 0 0 0 8.03 11.826l4.979 7.252.059-11.826.058-11.827h8.598V46.57c0 6.204.067 14.505.149 18.447l.15 7.167H36.977l-7.108-10.695c-3.909-5.882-7.476-11.204-7.926-11.826l-.818-1.131v23.652h-8.529Zm74.164-21.787c-1.508-.604-3.138-1.354-3.621-1.666-.484-.311-2.152-1.852-3.708-3.423l-2.83-2.856-.113 1.195-.113 1.194-1.799-2.094c-.99-1.151-1.856-2.093-1.924-2.092-.275.002-2.784 4.162-2.784 4.615 0 .267.33 1.278.733 2.247.403.968.693 1.801.644 1.851-.21.209-8.791-8.213-10.466-10.273-2.748-3.377-6.796-8.142-6.933-8.159-.066-.008-.117 1.283-.113 2.871.007 2.58-.069 3.149-.711 5.375-1.006 3.485-2.134 6.521-2.341 6.299-.095-.103-.35-2.174-.565-4.601-.215-2.428-.425-4.452-.468-4.499-.042-.047-1.396.844-3.008 1.98-1.613 1.136-3.083 2.123-3.267 2.194-.245.094-.012-.975.876-4.008.666-2.275 1.18-4.167 1.143-4.204-.038-.038-1.222 1.231-2.632 2.82-3.347 3.769-5.995 6.227-8.372 7.77-4.572 2.968-5.599 3.445-4.553 2.116.263-.335.479-.689.479-.786 0-.254-2.27-2.704-2.505-2.704-.107 0-.445.367-.75.816-.839 1.235-4.621 5.439-5.283 5.873-.557.365-.578.363-.464-.041.065-.233.34-.975.61-1.649.299-.744.376-1.135.198-.996-.162.125-1.262.992-2.445 1.926-2.627 2.073-2.957 2.248-5.658 2.988-3.044.834-3.204.768-1.429-.585 2.812-2.141 5.946-4.722 10.287-8.472 2.361-2.039 4.349-3.708 4.418-3.708.069 0 1.092.916 2.275 2.035l2.15 2.034 1.31-1.185c.721-.653 2.776-2.561 4.567-4.242 3.097-2.906 11.627-10.629 12.466-11.288.357-.279 1.003.288 6.583 5.772 3.403 3.345 7.423 7.236 8.933 8.646l2.746 2.564 2.595-2.394c1.428-1.317 2.694-2.395 2.813-2.395.119 0 1.527 1.197 3.13 2.66 4.997 4.561 6.891 6.23 9.813 8.65 3.664 3.034 3.577 2.953 3.16 2.939-.182-.006-1.565-.505-3.074-1.11Z" style="fill: rgb(0, 0, 0);" class="fills" id="fills-a76415d3-fc7e-80b7-8004-bdf5c05b287e"/></g><g class="text-container" id="shape-d58ab6fe-773d-80b6-8004-c5ad16ed2c8f" data-testid="Portfolio"><defs><pattern patternUnits="userSpaceOnUse" x="120" y="16" width="252.906" height="84" id="fill-0-render-3-0"><rect width="252.906" height="84" style="fill: rgb(0, 0, 0); fill-opacity: 1;"/></pattern></defs><text x="120" y="94" dominant-baseline="ideographic" textLength="252.906" lengthAdjust="spacingAndGlyphs" style="text-transform: none; font-family: Poppins; letter-spacing: normal; font-style: normal; font-weight: 600; white-space: pre; font-size: 60px; text-decoration: none solid rgb(0, 0, 0); direction: ltr; fill: rgb(0, 0, 0); fill-opacity: 1;" class="fills" id="fills-d58ab6fe-773d-80b6-8004-c5ad16ed2c8f">Portfolio</text></g></g></svg>
